X: 1962
T: Arthur Darley's
R: jig
M: 6/8
K: Amixolydian
|:A3 AGF|EFE D3|d2e fgf|edc d3|
fgf edc|dAA BAG|AGF GFE|FED DEF|
Ddd Aee|Aff Agg|fed edc|d3 dcB:|
|:A2=f fef|A2=f fef|A=ff Agg|Aaa A_bb|
A2=f fef|A2=f f2g|=fed ed^c|1 d2d d2e:|2 d2A a3||
|:f3 edc|dAA BAG|AGF GFE|FED DEF|
Ddd Aee|Aff Agg|fed edc|1 d2A a3:|2 d2d dcB||

